X: 23504
T: Liam Childs
R: slip jig
M: 9/8
K: Gmajor
G2A|:"G"B3 BAG Bdd|"D"A3 AGA BGd|"C"G3 GAG GED|"D"BAA ABd "C"edg|
"G"B3 BAG Bdd|"D"A3 AGA BGd|"C"G3 GAG GED|1 "D"BAA ABA "C"G2A:|2 "D"BAA ABA "G"GB/c/d||
|:"G"ged B3 BAG|ged BGA "G"B2d|"G"ged B2A Bdg|"C"e2d egb "D"a2b|
"b"ged B3 BAG|"e"ged BGA "G"B2d|"D"A3 ABA "a"AGE|1 "C"edB "D"ABA "G"GB/c/d:|2 "C"edB "D"ABA "G"G2A||

